!!!SOCIAL_FUNCTION:	klukluwatk dance
!!!PDT:	1939
!!!OTL: No_38_"I_Am_Dancing_in_the_Air".krn
!!!LANG: Non-Tone
!!!LING_GROUP: Wakashan
!!!REG: Pacific Northwest
**kern	**kern
*staff2	*staff1
=1-	=1-
*clefF4	*clefF4
*k[f#c#g#d#a#]	*k[f#c#g#d#a#]
*M2/4	*M2/4
8EE/	4c#\
8r	.
8EE/L	8c#\L
8EE/J	8c#\J
=2	=2
8EE/	8c#\L
8r	8A#\J
8r	8c#\L
8EE/	8c#\J
=3	=3
8EE/	4c#\
8r	.
8EE/L	4r
8EE/J	.
=4	=4
8EE/	4r
8r	.
8r	8r
8EE/	8c#\
=5	=5
8EE/	4c#\
8r	.
8r	8c#\L
8EE/	8c#\J
=6	=6
8EE/	8c#\L
8r	8A#\J
8EE/L	8c#\L
8EE/J	8A#\J
=7	=7
8EE/	4A#\
8r	.
8r	4r
8EE/	.
=8	=8
8EE/	4r
8r	.
8r	8r
8EE/	8A#\
=9	=9
8EE/	4A#\
8r	.
8r	16F#\
.	16r
8EE/	8A#\
=10	=10
8EE/	4A#\
8r	.
8r	8B\L
8EE/	8A#\J
=11	=11
8EE/	4B\
8r	.
8r	8r
8EE/	8B\
=12	=12
8EE/	4B\
8r	.
8EE/L	8B\L
8EE/J	8B\J
=13	=13
8EE/	8B\L
8r	8G#\J
8EE/L	8B\L
8EE/J	8B\J
=14	=14
8EE/	8B\L
8r	8G#\J
8EE/L	8B\L
8EE/J	16B\L
.	16B\JJ
=15	=15
2r	[2B\
=16	=16
2r	2B\]
=17||	=17||
*M3/4	*M3/4
4r	4B\
8EE/L	8B\L
8EE/J	8B\J
8EE/L	8B\L
8EE/J	8B\J
=18	=18
8EE/	4B\
8r	.
2r	2r
==	==
*-	*-
